src/assets/icons/apps.svg

<svg width="24" height="24" viewBox="0 0 24 24" fill="none" xmlns="http://www.w3.org/2000/svg">
<path d="M22.9898 14.2773L22.4851 13.9689L22.9898 13.6585C24.3339 12.837 24.3368 11.4379 22.9898 10.6146L22.4851 10.3063L22.9898 9.99585C24.3374 9.17226 24.3327 7.21785 22.9915 6.39819L13.0972 0.312596C12.4189 -0.10192 11.5762 -0.10192 10.8979 0.312596C10.8973 0.312971 10.8967 0.313346 10.8961 0.313721L1.0102 6.39716C-0.337037 7.22052 -0.333053 9.17498 1.00837 9.99473L1.51476 10.3063L1.0102 10.6146C-0.332209 11.4351 -0.337928 12.8346 1.00837 13.6573L1.51476 13.9689L1.0102 14.2773C-0.337412 15.1009 -0.335443 16.7798 1.00837 17.6011L10.8979 23.6868C11.5689 24.0968 12.4116 24.1057 13.0989 23.6857L22.9898 17.6023C24.3368 16.7791 24.3367 15.1005 22.9898 14.2773ZM1.74515 7.59561L11.6329 1.5111L11.6326 1.51128C11.8584 1.37408 12.1386 1.37441 12.3623 1.51119L22.2567 7.59679C22.7043 7.87026 22.707 8.52121 22.255 8.7974C21.5288 9.24407 12.6836 14.6844 12.3642 14.8809C12.138 15.0191 11.8572 15.019 11.633 14.882C11.1913 14.6102 2.13853 9.03951 1.74342 8.79632C1.29576 8.5228 1.29299 7.87194 1.74515 7.59561ZM1.4069 12.1365C1.4076 12.113 1.46957 11.9815 1.74332 11.8142L2.85806 11.1329L10.898 16.0804C11.5704 16.4913 12.4132 16.4984 13.0989 16.0793L21.1415 11.1326L22.2567 11.8141C22.5305 11.9814 22.5924 12.1129 22.5931 12.1364C22.5924 12.1602 22.5304 12.2916 22.255 12.46C21.5287 12.9067 12.6836 18.347 12.3641 18.5435C12.1379 18.6817 11.8571 18.6816 11.6329 18.5446C11.3133 18.3479 2.47687 12.9103 1.74337 12.4589C1.46957 12.2916 1.4076 12.1601 1.4069 12.1365ZM22.255 16.4037L12.3641 22.4872C12.138 22.6254 11.8571 22.6254 11.6329 22.4884L1.74328 16.4027C1.2966 16.1298 1.29609 15.7501 1.74328 15.4769L2.85806 14.7956L10.898 19.743C11.5714 20.1545 12.414 20.1605 13.0989 19.742L21.1415 14.7953L22.2567 15.4769C22.4706 15.6075 22.5931 15.7762 22.5931 15.9397C22.5931 16.1033 22.4705 16.272 22.255 16.4037Z" fill="white"/>
</svg>

<svg width="24" height="24" fill="none" xmlns="http://www.w3.org/2000/svg"><path d="m22.99 14.277-.505-.308.505-.31c1.344-.822 1.347-2.221 0-3.044l-.505-.309.505-.31c1.347-.824 1.343-2.778.002-3.598L13.096.313a2.1 2.1 0 0 0-2.2 0L1.01 6.398c-1.347.824-1.343 2.778-.002 3.598l.507.311-.505.309c-1.342.82-1.348 2.22-.002 3.042l.507.312-.505.308c-1.347.824-1.345 2.503-.002 3.324l9.89 6.086a2.1 2.1 0 0 0 2.2-.001l9.892-6.084c1.347-.823 1.347-2.502 0-3.325ZM1.745 7.596l9.888-6.085a.7.7 0 0 1 .73 0l9.894 6.086a.703.703 0 0 1-.002 1.2l-9.89 6.084a.7.7 0 0 1-.732.001l-9.89-6.086a.703.703 0 0 1 .002-1.2Zm-.338 4.54c0-.023.063-.154.336-.322l1.115-.681 8.04 4.947a2.102 2.102 0 0 0 2.2 0l8.043-4.947 1.116.681c.273.167.335.299.336.322 0 .024-.063.156-.338.324l-9.89 6.084a.7.7 0 0 1-.732 0l-9.89-6.085c-.273-.167-.335-.299-.336-.322Zm20.848 4.268-9.89 6.083a.7.7 0 0 1-.732.001l-9.89-6.085c-.446-.273-.447-.653 0-.926l1.115-.681 8.04 4.947a2.101 2.101 0 0 0 2.2-.001l8.043-4.947 1.116.682c.214.13.336.3.336.463 0 .163-.122.332-.338.464Z" fill="#fff"/></svg>
